X:1
T:Stowe, 76.76 D
T:Stowe, 76.76 D
T:Anonymous, 1865
T:Public Domain Courtesy of the Cyber Hymnal™
C:Anonymous, 1865
Z:Public Domain
Z:Courtesy of the Cyber Hymnal™
%%score ( 1 2 ) ( 3 4 )
L:1/8
Q:1/4=103
M:6/8
K:F
V:1 treble 
V:2 treble 
V:3 bass 
V:4 bass 
V:1
 F | F2 [FA] [Ac]2 [Ac] | [Bd]3 [Ac]2 [Ac] | ([Ac][GB])[FA] ([Ac][GB])[FA] | [EG]4 z F | %5
 F2 [FA] [Ac]2 [Ac] | [Bd]3 [Ac]2 [Ac] | ([Ac][GB])[FA] ([GB][FA])[EG] | F4 z [FA] | %9
 [EG]2 [EG] [EG]2 [EG] | [Ec]3 [EG]2 [EG] | [Ge]2 [Ge] ([Fd][Ec])[Fd] | [Ec]3- [Ec]2 [Ac] | %13
 [Ac]2 [FA] [FA]2 [Af] | [df]3 [Bd]2 [Bd] | [Ac]2 [FA] ([GB][FA])[EG] | F4 z |] %17
V:2
 F | F2 x4 | x6 | x6 | x5 F | F2 x4 | x6 | x6 | F4 x2 | x6 | x6 | x6 | x6 | x6 | x6 | x6 | F4 x |] %17
V:3
 F, | [F,A,]2 [F,C] F,2 F, | F,3 F,2 [F,C] | [C,C]2 [C,C] [C,C]2 [C,C] | [C,C]4 z [F,A,] | %5
 [F,A,]2 [F,C] F,2 F, | F,3 F,2 [F,C] | C2 C [C,C]2 [C,C] | [F,A,]4 z [F,C] | %9
 [C,C]2 [C,C] [C,C]2 [C,C] | [C,G,]3 [C,C]2 [C,C] | [C,G,]2 [E,G,] G,2 G, | [C,G,]3- [C,G,]2 F, | %13
 F,2 [F,C] [F,C]2 [F,C] | [B,,B,]3 [B,,B,]2 [B,,D] | [F,F]2 [F,C] [C,C]2 [C,B,] | [F,A,]4 z |] %17
V:4
 F, | x3 F,2 F, | F,3 F,2 x | x6 | x6 | x3 F,2 F, | F,3 F,2 x | C2 C x3 | x6 | x6 | x6 | %11
 x3 G,2 G, | x5 F, | F,2 x4 | x6 | x6 | x5 |] %17

